img/done.svg

<svg width="24" height="24" viewBox="0 0 24 24" fill="none" xmlns="http://www.w3.org/2000/svg">
<rect width="24" height="24" rx="12" fill="#FC6733"/>
<path d="M8.926 17.116C8.926 16.9947 8.90267 16.934 8.856 16.934L8.534 17.088C8.534 17.0227 8.49667 16.976 8.422 16.948L8.31 16.934C8.23533 16.934 8.142 16.9667 8.03 17.032C8.01133 16.9853 7.988 16.9387 7.96 16.892C7.932 16.8453 7.90867 16.8033 7.89 16.766C7.76867 16.5327 7.64733 16.276 7.526 15.996C7.414 15.7067 7.30667 15.4313 7.204 15.17C7.11067 14.9087 7.036 14.7033 6.98 14.554C6.94267 14.4327 6.90067 14.2507 6.854 14.008C6.80733 13.7653 6.76067 13.4573 6.714 13.084C6.81667 13.1493 6.896 13.182 6.952 13.182C7.01733 13.182 7.078 13.084 7.134 12.888C7.162 12.9253 7.21333 12.944 7.288 12.944C7.344 12.944 7.386 12.9253 7.414 12.888L7.638 12.552L7.89 12.636H7.904C7.92267 12.636 7.94133 12.6267 7.96 12.608C7.97867 12.5893 8.00667 12.5707 8.044 12.552C8.11867 12.5053 8.17467 12.482 8.212 12.482L8.254 12.496C8.48733 12.608 8.63667 12.8133 8.702 13.112C8.87 13.8213 9.038 14.176 9.206 14.176C9.374 14.176 9.57 13.9987 9.794 13.644C9.906 13.4667 10.018 13.2613 10.13 13.028C10.2513 12.7947 10.3727 12.5333 10.494 12.244C10.5127 12.356 10.5313 12.412 10.55 12.412C10.5967 12.412 10.676 12.2953 10.788 12.062C10.9093 11.8287 11.1007 11.5067 11.362 11.096C11.5113 10.844 11.698 10.5593 11.922 10.242C12.1553 9.92467 12.4027 9.598 12.664 9.262C12.9253 8.926 13.1773 8.60867 13.42 8.31C13.672 8.01133 13.896 7.75467 14.092 7.54C14.288 7.32533 14.4327 7.18533 14.526 7.12C14.8807 6.87733 15.1607 6.644 15.366 6.42C15.3567 6.48533 15.3427 6.546 15.324 6.602C15.3147 6.64867 15.31 6.68133 15.31 6.7C15.31 6.73733 15.3287 6.756 15.366 6.756L15.758 6.56V6.616C15.758 6.69067 15.7767 6.728 15.814 6.728C15.842 6.728 15.898 6.686 15.982 6.602C16.066 6.518 16.1127 6.45733 16.122 6.42L16.094 6.616L16.57 6.336L16.458 6.588C16.6073 6.48533 16.7147 6.434 16.78 6.434C16.8173 6.434 16.8453 6.45733 16.864 6.504C16.8827 6.54133 16.892 6.57867 16.892 6.616C16.892 6.672 16.8687 6.73733 16.822 6.812C16.7753 6.88667 16.7147 6.97533 16.64 7.078C16.584 7.15267 16.4907 7.26467 16.36 7.414C16.2387 7.554 16.052 7.764 15.8 8.044C15.548 8.31467 15.212 8.69267 14.792 9.178C14.68 9.29933 14.5073 9.514 14.274 9.822C14.0407 10.1207 13.7747 10.4707 13.476 10.872C13.1867 11.264 12.8973 11.6607 12.608 12.062C12.3187 12.4633 12.062 12.8273 11.838 13.154C11.614 13.4713 11.4553 13.7093 11.362 13.868L10.494 15.338C10.3073 15.6553 10.1533 15.9167 10.032 16.122C9.91067 16.318 9.81733 16.4533 9.752 16.528C9.612 16.696 9.458 16.8453 9.29 16.976L9.164 16.906L9.052 16.976L8.926 17.116Z" fill="white"/>
</svg>

<svg width="24" height="24" viewBox="0 0 24 24" fill="none" xmlns="http://www.w3.org/2000/svg"><rect width="24" height="24" rx="12" fill="#FC6733"/><path d="M8.926 17.116c0-.121-.023-.182-.07-.182l-.322.154c0-.065-.037-.112-.112-.14l-.112-.014a.592.592 0 0 0-.28.098.98.98 0 0 0-.07-.14 1.92 1.92 0 0 1-.07-.126c-.121-.233-.243-.49-.364-.77l-.322-.826a44.038 44.038 0 0 0-.224-.616 5.606 5.606 0 0 1-.126-.546c-.047-.243-.093-.55-.14-.924.103.065.182.098.238.098.065 0 .126-.098.182-.294.028.037.08.056.154.056.056 0 .098-.019.126-.056l.224-.336.252.084h.014c.019 0 .037-.01.056-.028a.326.326 0 0 1 .084-.056c.075-.047.13-.07.168-.07l.042.014c.233.112.383.317.448.616.168.71.336 1.064.504 1.064.168 0 .364-.177.588-.532.112-.177.224-.383.336-.616.121-.233.243-.495.364-.784.019.112.037.168.056.168.047 0 .126-.117.238-.35.121-.233.313-.555.574-.966.15-.252.336-.537.56-.854A56.922 56.922 0 0 1 13.42 8.31c.252-.299.476-.555.672-.77a3.23 3.23 0 0 1 .434-.42 4.88 4.88 0 0 0 .84-.7c-.01.065-.023.126-.042.182a.594.594 0 0 0-.014.098c0 .037.019.056.056.056l.392-.196v.056c0 .075.019.112.056.112.028 0 .084-.042.168-.126.084-.084.13-.145.14-.182l-.028.196.476-.28-.112.252c.15-.103.257-.154.322-.154.037 0 .065.023.084.07a.248.248 0 0 1 .028.112.385.385 0 0 1-.07.196 4.708 4.708 0 0 1-.182.266c-.056.075-.15.187-.28.336-.121.14-.308.35-.56.63-.252.27-.588.649-1.008 1.134a9.725 9.725 0 0 0-.518.644c-.233.299-.5.649-.798 1.05-.29.392-.579.789-.868 1.19-.29.401-.546.765-.77 1.092-.224.317-.383.555-.476.714l-.868 1.47c-.187.317-.34.579-.462.784a3.423 3.423 0 0 1-.28.406c-.14.168-.294.317-.462.448l-.126-.07-.112.07-.126.14z" fill="#fff"/></svg>
